packages/bezier-icons/icons/channel-x-symbol-alt.svg

<svg width="24" height="24" viewBox="0 0 24 24" fill="none" xmlns="http://www.w3.org/2000/svg">
<path d="M21.6091 16.1484L18.8099 14.8237C18.5207 14.6857 18.1733 14.7688 17.9772 15.0231C17.9373 15.0747 17.8957 15.1245 17.8525 15.1711C17.6414 15.4054 17.3838 15.5916 17.0962 15.7229C16.325 16.0836 15.3526 15.9623 14.6861 15.4287C13.717 14.6907 13.4976 13.2496 14.1791 12.2456C14.2473 12.1459 14.3237 12.0462 14.4052 11.9564C14.9038 11.3763 15.4623 10.8128 16.0441 10.3159C16.1787 10.2062 16.3217 10.0815 16.458 9.97511C16.5494 9.9053 16.7954 9.71747 16.8835 9.64932C16.9799 9.58284 17.2209 9.41163 17.3206 9.34016C17.4902 9.22713 17.6747 9.11244 17.8442 9.00108C18.052 8.8814 18.3279 8.71019 18.539 8.60215C19.1557 8.26307 19.8222 7.96554 20.4821 7.7212C20.8046 7.60983 21.1702 7.48849 21.496 7.39707H21.5027C21.8534 7.28903 22.0263 6.8951 21.8684 6.56432L20.507 3.72532C20.3558 3.40951 19.9901 3.25991 19.661 3.37793C19.2388 3.52919 18.7052 3.72366 18.5008 3.81176C17.0929 4.40017 15.7399 5.16809 14.5099 6.07232C14.2539 6.25848 14.0062 6.45129 13.7602 6.65076C12.9923 5.14482 11.6559 3.91315 9.89236 3.33471C6.96194 2.36067 3.72235 3.57739 2.10505 6.14213C1.88731 6.48786 2.02028 6.94829 2.39095 7.12281L5.19006 8.44757C5.47928 8.58553 5.82667 8.50242 6.02281 8.24811C6.0627 8.19658 6.10425 8.14672 6.14747 8.10017C6.35857 7.86581 6.61621 7.67964 6.90376 7.54833C7.67668 7.18764 8.64739 7.30898 9.31392 7.84254C10.283 8.58054 10.5024 10.0217 9.82089 11.0256C9.75274 11.1253 9.67628 11.2251 9.59483 11.3148C9.09618 11.8949 8.53768 12.4584 7.95592 12.9554C7.82129 13.0651 7.67834 13.1898 7.54204 13.2961C7.45062 13.366 7.20462 13.5538 7.11652 13.6219C7.02011 13.6884 6.7791 13.8596 6.67937 13.9311C6.50983 14.0441 6.32532 14.1588 6.15578 14.2702C5.94801 14.3899 5.67209 14.5611 5.46099 14.6691C4.84432 15.0082 4.17779 15.3057 3.51791 15.5501C3.19544 15.6614 2.82976 15.7828 2.50398 15.8742H2.49733C2.14661 15.9822 1.97208 16.3762 2.13165 16.7069L3.49297 19.5459C3.64423 19.8617 4.00991 20.0113 4.33902 19.8933C4.76121 19.7421 5.29477 19.5476 5.49922 19.4595C6.90709 18.8711 8.2601 18.1032 9.49011 17.1989C9.74609 17.0128 9.99375 16.82 10.2398 16.6205C11.0077 18.1264 12.3441 19.3581 14.1076 19.9365C17.0381 20.9106 20.2776 19.6939 21.8949 17.1291C22.1127 16.7834 21.9797 16.323 21.6091 16.1484Z" fill="#313234"/>
</svg>

<svg xmlns="http://www.w3.org/2000/svg" width="24" height="24" fill="none" viewBox="0 0 24 24"><path fill="#313234" d="m21.61 16.148-2.8-1.324a.68.68 0 0 0-.833.2q-.06.076-.125.147c-.21.234-.468.42-.756.552-.771.36-1.743.24-2.41-.294-.969-.738-1.188-2.18-.507-3.183.068-.1.145-.2.226-.29a15 15 0 0 1 1.64-1.64c.134-.11.277-.235.413-.34l.426-.327c.096-.066.337-.237.437-.309.17-.113.354-.228.523-.339.208-.12.484-.29.695-.399a14.6 14.6 0 0 1 1.943-.88 19 19 0 0 1 1.014-.325h.007a.6.6 0 0 0 .365-.833l-1.361-2.839a.683.683 0 0 0-.846-.347 29 29 0 0 0-1.16.434 19.4 19.4 0 0 0-4.74 2.839 6.65 6.65 0 0 0-3.869-3.316c-2.93-.974-6.17.242-7.787 2.807a.682.682 0 0 0 .286.98l2.8 1.326c.288.138.636.054.832-.2q.06-.077.124-.148c.212-.234.47-.42.757-.552a2.35 2.35 0 0 1 2.41.295c.969.738 1.188 2.179.507 3.183-.068.1-.145.2-.226.289a15 15 0 0 1-1.64 1.64c-.134.11-.277.235-.413.341l-.425.326c-.097.066-.338.238-.438.31-.17.112-.354.227-.523.338-.208.12-.484.291-.695.4-.617.338-1.283.636-1.943.88-.323.111-.688.233-1.014.324h-.007a.6.6 0 0 0-.365.833l1.361 2.839a.683.683 0 0 0 .846.347 29 29 0 0 0 1.16-.434 19.4 19.4 0 0 0 4.74-2.838 6.65 6.65 0 0 0 3.869 3.316c2.93.974 6.17-.243 7.787-2.808a.683.683 0 0 0-.286-.98"/></svg>
